;FLAVOR:Marlin
;TIME:1304
;Filament used: 4.35819m
;Layer height: 0.3
;MINX:89
;MINY:9
;MINZ:0.3
;MAXX:131
;MAXY:211
;MAXZ:3.9
;Generated with Creality Slicer 4.8.2-76
M140 S100
M105
M190 S100
M104 S260
M105
M109 S260
M82 ;absolute extrusion mode

G28 ;Home
G29
G92 E0 ;Reset Extruder
G1 Z2.0 F3000 ;Move Z Axis up
G1 X10.1 Y20 Z0.28 F5000.0 ;Move to start position
G1 X10.1 Y200.0 Z0.28 F1500.0 E15 ;Draw the first line
G1 X10.4 Y200.0 Z0.28 F5000.0 ;Move to side a little
G1 X10.4 Y20 Z0.28 F1500.0 E30 ;Draw the second line
G92 E0 ;Reset Extruder
G1 Z2.0 F3000 ;Move Z Axis up

G92 E0
G92 E0
G1 F1800 E-0.8
;LAYER_COUNT:13
;LAYER:0
M107
G0 F9000 X89.199 Y17.979 Z0.3
;TYPE:SKIRT
G1 F1800 E0
G1 X89.411 Y17.065 E0.04681
G1 X89.7 Y16.173 E0.09359
G1 X90.065 Y15.309 E0.14038
G1 X90.501 Y14.479 E0.18716
G1 X91.007 Y13.689 E0.23396
G1 X91.578 Y12.945 E0.28075
G1 X92.21 Y12.252 E0.32755
G1 X92.899 Y11.616 E0.37433
G1 X93.64 Y11.041 E0.42112
G1 X94.427 Y10.531 E0.46791
G1 X95.255 Y10.09 E0.51471
G1 X96.117 Y9.721 E0.56149
G1 X97.008 Y9.427 E0.6083
G1 X97.92 Y9.209 E0.65508
G1 X98.847 Y9.071 E0.70184
G1 X99.701 Y9.013 E0.74454
G1 X100.021 Y9.004 E0.76051
G1 X100.33 Y9 E0.77593
G1 X119.293 Y9 E1.722
G1 X120.149 Y9.011 E1.76471
G1 X121.085 Y9.065 E1.81148
G1 X122.013 Y9.197 E1.85825
G1 X122.927 Y9.409 E1.90506
G1 X123.819 Y9.698 E1.95184
G1 X124.684 Y10.061 E1.99864
G1 X125.514 Y10.497 E2.04541
G1 X126.305 Y11.002 E2.09223
G1 X127.049 Y11.573 E2.13902
G1 X127.742 Y12.205 E2.18581
G1 X128.379 Y12.893 E2.23259
G1 X128.954 Y13.634 E2.27939
G1 X129.465 Y14.42 E2.32616
G1 X129.907 Y15.248 E2.37298
G1 X130.276 Y16.11 E2.41976
G1 X130.571 Y17 E2.46654
G1 X130.789 Y17.912 E2.51332
G1 X130.929 Y18.84 E2.56015
G1 X130.987 Y19.701 E2.6032
G1 X130.996 Y20.021 E2.61917
G1 X131 Y20.33 E2.63459
G1 X130.999 Y59.464 E4.58699
G1 X130.988 Y60.171 E4.62227
G1 X130.933 Y61.107 E4.66904
G1 X130.799 Y62.036 E4.71587
G1 X130.511 Y63.209 E4.77613
G1 X130.271 Y63.996 E4.81718
G1 X129.898 Y65.157 E4.87802
G1 X129.2 Y67.557 E5.00272
G1 X128.561 Y70.013 E5.12933
G1 X127.993 Y72.477 E5.25548
G1 X127.496 Y74.948 E5.38123
G1 X127.078 Y77.401 E5.50537
G1 X126.722 Y79.896 E5.63111
G1 X126.435 Y82.424 E5.75804
G1 X126.223 Y84.913 E5.88267
G1 X126.082 Y87.397 E6.00679
G1 X126.009 Y89.985 E6.13596
G1 X126 Y91.281 E6.20062
G1 X126 Y128.719 E8.06841
G1 X126.037 Y131.331 E8.19874
G1 X126.144 Y133.853 E8.32467
G1 X126.321 Y136.347 E8.44941
G1 X126.569 Y138.845 E8.57465
G1 X126.887 Y141.334 E8.69984
G1 X127.281 Y143.843 E8.82654
G1 X127.74 Y146.309 E8.95169
G1 X128.267 Y148.76 E9.07676
G1 X128.87 Y151.22 E9.20313
G1 X129.536 Y153.641 E9.3284
G1 X130.497 Y156.743 E9.49041
G1 X130.736 Y157.65 E9.53721
G1 X130.897 Y158.574 E9.584
G1 X130.981 Y159.552 E9.63297
G1 X130.987 Y159.7 E9.64036
G1 X130.996 Y160.041 E9.65738
G1 X131 Y160.461 E9.67834
G1 X130.999 Y199.415 E11.62176
G1 X130.989 Y200.142 E11.65803
G1 X130.936 Y201.079 E11.70485
G1 X130.804 Y202.007 E11.75162
G1 X130.593 Y202.921 E11.79842
G1 X130.304 Y203.813 E11.8452
G1 X129.941 Y204.678 E11.892
G1 X129.506 Y205.509 E11.93879
G1 X129.001 Y206.299 E11.98557
G1 X128.431 Y207.044 E12.03237
G1 X127.8 Y207.738 E12.07917
G1 X127.111 Y208.375 E12.12598
G1 X126.371 Y208.951 E12.17277
G1 X125.585 Y209.462 E12.21954
G1 X124.758 Y209.904 E12.26632
G1 X123.896 Y210.274 E12.31312
G1 X123.006 Y210.569 E12.3599
G1 X122.094 Y210.788 E12.40669
G1 X121.167 Y210.928 E12.45346
G1 X120.299 Y210.987 E12.49687
G1 X119.979 Y210.996 E12.51284
G1 X119.67 Y211 E12.52826
G1 X100.565 Y210.999 E13.48141
G1 X99.867 Y210.99 E13.51624
G1 X98.931 Y210.938 E13.563
G1 X98.002 Y210.806 E13.60982
G1 X97.088 Y210.596 E13.65661
G1 X96.195 Y210.309 E13.7034
G1 X95.33 Y209.946 E13.7502
G1 X94.499 Y209.512 E13.79698
G1 X93.708 Y209.008 E13.84377
G1 X92.963 Y208.438 E13.89057
G1 X92.269 Y207.807 E13.93736
G1 X91.632 Y207.12 E13.9841
G1 X91.055 Y206.38 E14.03092
G1 X90.543 Y205.594 E14.07772
G1 X90.1 Y204.767 E14.12453
G1 X89.729 Y203.906 E14.1713
G1 X89.433 Y203.016 E14.21809
G1 X89.214 Y202.104 E14.26489
G1 X89.073 Y201.177 E14.31167
G1 X89.013 Y200.288 E14.35612
G1 X89.004 Y199.955 E14.37274
G1 X89 Y199.658 E14.38756
G1 X89.001 Y160.536 E16.33936
G1 X89.012 Y159.829 E16.37464
G1 X89.067 Y158.893 E16.42142
G1 X89.201 Y157.964 E16.46824
G1 X89.491 Y156.788 E16.52867
G1 X89.78 Y155.845 E16.57788
G1 X90.102 Y154.844 E16.63034
G1 X90.802 Y152.436 E16.75545
G1 X91.437 Y149.996 E16.88123
G1 X92.007 Y147.523 E17.00785
G1 X92.504 Y145.052 E17.1336
G1 X92.922 Y142.599 E17.25774
G1 X93.279 Y140.096 E17.38388
G1 X93.565 Y137.576 E17.51041
G1 X93.777 Y135.087 E17.63504
G1 X93.918 Y132.603 E17.75916
G1 X93.991 Y130.015 E17.88833
G1 X94 Y128.719 E17.95299
G1 X94 Y91.278 E19.82093
G1 X93.963 Y88.669 E19.9511
G1 X93.856 Y86.147 E20.07704
G1 X93.679 Y83.653 E20.20178
G1 X93.432 Y81.158 E20.32686
G1 X93.112 Y78.657 E20.45266
G1 X92.721 Y76.168 E20.57836
G1 X92.259 Y73.685 E20.70436
G1 X91.733 Y71.24 E20.82913
G1 X91.128 Y68.77 E20.956
G1 X90.471 Y66.385 E21.07942
G1 X89.502 Y63.254 E21.24294
G1 X89.263 Y62.347 E21.28974
G1 X89.102 Y61.423 E21.33653
G1 X89.019 Y60.452 E21.38515
G1 X89.013 Y60.306 E21.39244
G1 X89.004 Y59.959 E21.40976
G1 X89 Y59.539 E21.43071
G1 X89.001 Y20.509 E23.37793
G1 X89.011 Y19.844 E23.41111
G1 X89.065 Y18.907 E23.45793
G1 X89.199 Y17.979 E23.50471
G0 F9000 X89.598 Y18.02
G1 F1800 X89.81 Y17.124 E23.55065
G1 X90.099 Y16.249 E23.59662
G1 X90.463 Y15.404 E23.64252
G1 X90.898 Y14.593 E23.68844
G1 X91.403 Y13.822 E23.73442
G1 X91.972 Y13.099 E23.78032
G1 X92.602 Y12.427 E23.82627
G1 X93.288 Y11.813 E23.87221
G1 X94.024 Y11.261 E23.9181
G1 X94.806 Y10.774 E23.96407
G1 X95.627 Y10.358 E24.00998
G1 X96.481 Y10.014 E24.05592
G1 X97.361 Y9.745 E24.10183
G1 X98.262 Y9.554 E24.14778
G1 X99.176 Y9.442 E24.19372
G1 X99.712 Y9.413 E24.2205
G1 X100.032 Y9.404 E24.23647
G1 X100.33 Y9.4 E24.25134
G1 X119.293 Y9.4 E25.1974
G1 X120.143 Y9.411 E25.23981
G1 X121.062 Y9.464 E25.28574
G1 X121.973 Y9.597 E25.33167
G1 X122.869 Y9.808 E25.3776
G1 X123.743 Y10.096 E25.42351
G1 X124.59 Y10.459 E25.46948
G1 X125.401 Y10.894 E25.51539
G1 X126.171 Y11.398 E25.56131
G1 X126.895 Y11.967 E25.60725
G1 X127.567 Y12.597 E25.6532
G1 X128.182 Y13.282 E25.69913
G1 X128.735 Y14.018 E25.74506
G1 X129.222 Y14.799 E25.79098
G1 X129.639 Y15.62 E25.83692
G1 X129.984 Y16.474 E25.88287
G1 X130.253 Y17.354 E25.92878
G1 X130.445 Y18.255 E25.97474
G1 X130.558 Y19.168 E26.02064
G1 X130.587 Y19.712 E26.04782
G1 X130.596 Y20.032 E26.06379
G1 X130.6 Y20.33 E26.07866
G1 X130.599 Y59.458 E28.03076
G1 X130.588 Y60.165 E28.06604
G1 X130.533 Y61.084 E28.11197
G1 X130.4 Y61.995 E28.1579
G1 X130.128 Y63.092 E28.21429
G1 X129.84 Y64.034 E28.26343
G1 X129.51 Y65.061 E28.31725
G1 X128.815 Y67.45 E28.44138
G1 X128.168 Y69.937 E28.56958
G1 X127.605 Y72.38 E28.69466
G1 X127.105 Y74.867 E28.82122
G1 X126.68 Y77.355 E28.94714
G1 X126.323 Y79.861 E29.07343
G1 X126.041 Y82.343 E29.19805
G1 X125.824 Y84.894 E29.32578
G1 X125.682 Y87.399 E29.45096
G1 X125.609 Y89.971 E29.57933
G1 X125.6 Y91.278 E29.64454
G1 X125.6 Y128.722 E31.51263
G1 X125.637 Y131.353 E31.6439
G1 X125.744 Y133.862 E31.76919
G1 X125.922 Y136.378 E31.89503
G1 X126.172 Y138.902 E32.02156
G1 X126.493 Y141.41 E32.14771
G1 X126.88 Y143.872 E32.27205
G1 X127.349 Y146.394 E32.40003
G1 X127.881 Y148.868 E32.52628
G1 X128.481 Y151.316 E32.65202
G1 X129.148 Y153.739 E32.7774
G1 X130.115 Y156.861 E32.94046
G1 X130.349 Y157.752 E32.98642
G1 X130.505 Y158.659 E33.03234
G1 X130.581 Y159.569 E33.07789
G1 X130.596 Y160.045 E33.10165
G1 X130.6 Y160.465 E33.12261
G1 X130.599 Y199.41 E35.06558
G1 X130.589 Y200.137 E35.10186
G1 X130.536 Y201.056 E35.14778
G1 X130.404 Y201.967 E35.19371
G1 X130.193 Y202.863 E35.23963
G1 X129.906 Y203.738 E35.28557
G1 X129.543 Y204.584 E35.3315
G1 X129.109 Y205.396 E35.37744
G1 X128.605 Y206.167 E35.42339
G1 X128.037 Y206.891 E35.4693
G1 X127.408 Y207.563 E35.51522
G1 X126.723 Y208.178 E35.56115
G1 X125.987 Y208.731 E35.60708
G1 X125.206 Y209.219 E35.65302
G1 X124.386 Y209.637 E35.69894
G1 X123.532 Y209.982 E35.74489
G1 X122.652 Y210.251 E35.7908
G1 X121.751 Y210.444 E35.83677
G1 X120.838 Y210.557 E35.88267
G1 X120.288 Y210.587 E35.91015
G1 X119.968 Y210.596 E35.92612
G1 X119.67 Y210.6 E35.94099
G1 X100.57 Y210.599 E36.89389
G1 X99.872 Y210.59 E36.92872
G1 X98.953 Y210.538 E36.97464
G1 X98.042 Y210.407 E37.02056
G1 X97.146 Y210.197 E37.06647
G1 X96.271 Y209.91 E37.11241
G1 X95.424 Y209.548 E37.15837
G1 X94.612 Y209.114 E37.2043
G1 X93.841 Y208.612 E37.2502
G1 X93.116 Y208.044 E37.29615
G1 X92.443 Y207.415 E37.34211
G1 X91.828 Y206.731 E37.388
G1 X91.274 Y205.996 E37.43392
G1 X90.786 Y205.215 E37.47987
G1 X90.367 Y204.395 E37.52581
G1 X90.021 Y203.542 E37.57173
G1 X89.751 Y202.662 E37.61765
G1 X89.558 Y201.761 E37.66362
G1 X89.444 Y200.848 E37.70953
G1 X89.413 Y200.277 E37.73806
G1 X89.404 Y199.944 E37.75468
G1 X89.4 Y199.658 E37.76895
G1 X89.401 Y160.542 E39.72045
G1 X89.412 Y159.835 E39.75573
G1 X89.467 Y158.916 E39.80166
G1 X89.6 Y158.005 E39.84759
G1 X89.873 Y156.904 E39.90418
G1 X90.16 Y155.967 E39.95308
G1 X90.49 Y154.94 E40.00689
G1 X91.188 Y152.543 E40.13145
G1 X91.83 Y150.072 E40.25882
G1 X92.395 Y147.62 E40.38435
G1 X92.895 Y145.133 E40.51091
G1 X93.32 Y142.645 E40.63684
G1 X93.677 Y140.139 E40.76313
G1 X93.959 Y137.657 E40.88775
G1 X94.176 Y135.106 E41.01548
G1 X94.318 Y132.601 E41.14066
G1 X94.391 Y130.029 E41.26902
G1 X94.4 Y128.722 E41.33423
G1 X94.4 Y91.272 E43.20262
G1 X94.363 Y88.647 E43.3336
G1 X94.256 Y86.138 E43.45888
G1 X94.078 Y83.618 E43.58492
G1 X93.829 Y81.104 E43.71096
G1 X93.51 Y78.615 E43.83615
G1 X93.109 Y76.063 E43.96503
G1 X92.658 Y73.64 E44.08799
G1 X92.119 Y71.132 E44.21597
G1 X91.525 Y68.708 E44.34049
G1 X90.851 Y66.258 E44.46726
G1 X89.884 Y63.136 E44.63032
G1 X89.651 Y62.245 E44.67626
G1 X89.495 Y61.338 E44.72218
G1 X89.419 Y60.435 E44.76739
G1 X89.413 Y60.289 E44.77468
G1 X89.404 Y59.955 E44.79135
G1 X89.4 Y59.535 E44.8123
G1 X89.401 Y20.515 E46.75902
G1 X89.411 Y19.85 E46.7922
G1 X89.465 Y18.931 E46.83813
G1 X89.598 Y18.02 E46.88406
G0 F9000 X89.998 Y18.061
G1 F1800 X90.209 Y17.183 E46.92911
G1 X90.498 Y16.327 E46.97418
G1 X90.861 Y15.5 E47.01924
G1 X91.295 Y14.709 E47.06425
G1 X91.798 Y13.958 E47.10935
G1 X92.366 Y13.256 E47.1544
G1 X92.993 Y12.606 E47.19946
G1 X93.675 Y12.014 E47.24451
G1 X94.407 Y11.485 E47.28957
G1 X95.183 Y11.023 E47.33463
G1 X95.997 Y10.632 E47.37968
G1 X96.842 Y10.313 E47.42474
G1 X97.712 Y10.071 E47.4698
G1 X98.6 Y9.907 E47.51485
G1 X99.723 Y9.813 E47.57107
G1 X100.043 Y9.804 E47.58704
G1 X100.33 Y9.8 E47.60136
G1 X119.293 Y9.8 E48.54743
G1 X120.137 Y9.811 E48.58954
G1 X121.039 Y9.864 E48.63462
G1 X121.932 Y9.996 E48.67965
G1 X122.81 Y10.207 E48.7247
G1 X123.666 Y10.495 E48.76976
G1 X124.493 Y10.857 E48.8148
G1 X125.285 Y11.292 E48.85988
G1 X126.036 Y11.794 E48.90495
G1 X126.739 Y12.361 E48.95001
G1 X127.389 Y12.988 E48.99507
G1 X127.981 Y13.67 E49.04012
G1 X128.511 Y14.401 E49.08517
G1 X128.973 Y15.177 E49.13022
G1 X129.366 Y15.99 E49.17528
G1 X129.684 Y16.835 E49.22032
G1 X129.927 Y17.705 E49.26539
G1 X130.092 Y18.593 E49.31045
G1 X130.187 Y19.723 E49.36702
G1 X130.196 Y20.043 E49.38299
G1 X130.2 Y20.33 E49.39731
G1 X130.199 Y59.452 E51.34912
G1 X130.188 Y60.159 E51.38439
G1 X130.134 Y61.06 E51.42942
G1 X130 Y61.953 E51.47448
G1 X129.745 Y62.975 E51.52703
G1 X129.459 Y63.911 E51.57586
G1 X129.131 Y64.931 E51.62931
G1 X128.42 Y67.375 E51.7563
G1 X127.784 Y69.818 E51.88224
G1 X127.216 Y72.283 E52.00844
G1 X126.712 Y74.792 E52.13612
G1 X126.284 Y77.297 E52.2629
G1 X125.928 Y79.796 E52.38884
G1 X125.64 Y82.336 E52.51637
G1 X125.427 Y84.838 E52.64165
G1 X125.282 Y87.399 E52.76962
G1 X125.209 Y89.958 E52.89734
G1 X125.2 Y91.275 E52.96305
G1 X125.2 Y128.725 E54.83144
G1 X125.237 Y131.34 E54.96191
G1 X125.346 Y133.906 E55.09005
G1 X125.524 Y136.413 E55.21544
G1 X125.772 Y138.922 E55.34122
G1 X126.1 Y141.485 E55.47013
G1 X126.491 Y143.97 E55.59563
G1 X126.952 Y146.453 E55.72163
G1 X127.486 Y148.934 E55.84824
G1 X128.093 Y151.412 E55.97552
G1 X128.771 Y153.875 E56.10297
G1 X129.733 Y156.98 E56.26515
G1 X129.962 Y157.853 E56.31018
G1 X130.113 Y158.744 E56.35526
G1 X130.182 Y159.585 E56.39736
G1 X130.188 Y159.733 E56.40475
G1 X130.196 Y160.049 E56.42052
G1 X130.2 Y160.469 E56.44148
G1 X130.199 Y199.404 E58.38395
G1 X130.189 Y200.131 E58.42022
G1 X130.137 Y201.033 E58.4653
G1 X130.005 Y201.926 E58.51034
G1 X129.794 Y202.805 E58.55543
G1 X129.507 Y203.661 E58.60048
G1 X129.145 Y204.488 E58.64552
G1 X128.711 Y205.28 E58.69057
G1 X128.209 Y206.031 E58.73564
G1 X127.643 Y206.734 E58.78067
G1 X127.016 Y207.385 E58.82576
G1 X126.335 Y207.977 E58.87078
G1 X125.604 Y208.507 E58.91583
G1 X124.828 Y208.97 E58.96091
G1 X124.015 Y209.363 E59.00596
G1 X123.17 Y209.683 E59.05104
G1 X122.301 Y209.926 E59.09606
G1 X121.413 Y210.091 E59.14112
G1 X120.277 Y210.187 E59.19799
G1 X119.957 Y210.196 E59.21396
G1 X119.67 Y210.2 E59.22828
G1 X100.575 Y210.199 E60.18094
G1 X99.877 Y210.19 E60.21576
G1 X98.976 Y210.139 E60.26079
G1 X98.082 Y210.007 E60.30587
G1 X97.204 Y209.798 E60.3509
G1 X96.347 Y209.511 E60.39599
G1 X95.52 Y209.15 E60.44101
G1 X94.727 Y208.717 E60.48609
G1 X93.976 Y208.216 E60.53112
G1 X93.272 Y207.65 E60.57619
G1 X92.621 Y207.024 E60.62125
G1 X92.028 Y206.343 E60.6663
G1 X91.498 Y205.612 E60.71135
G1 X91.034 Y204.837 E60.75641
G1 X90.64 Y204.024 E60.80148
G1 X90.32 Y203.18 E60.84652
G1 X90.076 Y202.31 E60.8916
G1 X89.91 Y201.422 E60.93667
G1 X89.813 Y200.267 E60.99449
G1 X89.804 Y199.934 E61.01111
G1 X89.8 Y199.658 E61.02488
G1 X89.801 Y160.548 E62.97609
G1 X89.812 Y159.841 E63.01137
G1 X89.866 Y158.94 E63.0564
G1 X90 Y158.047 E63.10145
G1 X90.256 Y157.021 E63.1542
G1 X90.541 Y156.09 E63.20278
G1 X90.869 Y155.07 E63.25623
G1 X91.573 Y152.65 E63.38197
G1 X92.221 Y150.158 E63.51043
G1 X92.784 Y147.717 E63.63541
G1 X93.288 Y145.208 E63.76309
G1 X93.716 Y142.703 E63.88987
G1 X94.072 Y140.204 E64.01581
G1 X94.36 Y137.664 E64.14334
G1 X94.573 Y135.162 E64.26862
G1 X94.718 Y132.601 E64.39659
G1 X94.791 Y130.042 E64.52431
G1 X94.8 Y128.725 E64.59002
G1 X94.8 Y91.266 E66.45886
G1 X94.763 Y88.66 E66.58888
G1 X94.654 Y86.094 E66.71702
G1 X94.476 Y83.587 E66.84241
G1 X94.225 Y81.046 E66.9698
G1 X93.899 Y78.506 E67.09756
G1 X93.51 Y76.034 E67.2224
G1 X93.048 Y73.547 E67.3486
G1 X92.514 Y71.066 E67.47521
G1 X91.904 Y68.578 E67.60302
G1 X91.229 Y66.122 E67.73009
G1 X90.267 Y63.017 E67.89227
G1 X90.038 Y62.144 E67.93729
G1 X89.887 Y61.253 E67.98238
G1 X89.819 Y60.419 E68.02413
G1 X89.804 Y59.951 E68.04749
G1 X89.8 Y59.531 E68.06844
G1 X89.801 Y20.521 E70.01466
G1 X89.811 Y19.856 E70.04784
G1 X89.865 Y18.954 E70.09292
G1 X89.998 Y18.061 E70.13796
G1 F1800 E69.33796
;MESH:tensile-test-specimen.stl
G0 F9000 X99.335 Y20.014
G0 X100.014 Y20.014
G0 X100.4 Y20.1
G0 X100.4 Y20
;TYPE:FILL
G1 F1800 E70.13796
G1 X100.4 Y60.475 E72.15727
G0 F9000 X100.8 Y60.95
G1 F1800 X100.8 Y20 E74.20027
G0 F9000 X101.2 Y20
G1 F1800 X101.2 Y61.425 E76.26697
G0 F9000 X101.6 Y61.999
G1 F1800 X101.6 Y20 E78.36231
G0 F9000 X102 Y20
G1 F1800 X102 Y62.577 E80.48649
G0 F9000 X102.4 Y63.193
G1 F1800 X102.4 Y20 E82.6414
G0 F9000 X102.8 Y20
G1 F1800 X102.8 Y63.907 E84.83192
G0 F9000 X103.2 Y64.62
G1 F1800 X103.2 Y20 E87.05803
G0 F9000 X103.6 Y20
G1 F1800 X103.6 Y65.518 E89.32893
G0 F9000 X103.691 Y65.479
G0 X104.094 Y66.408
G0 X104 Y66.439
G1 F1800 X104 Y20 E91.64578
G0 F9000 X104.4 Y20
G1 F1800 X104.4 Y67.639 E94.0225
G0 F9000 X104.494 Y67.608
G0 X104.897 Y69.115
G0 X104.8 Y69.136
